lib/components/Logo/assets/LogoOffice.svg

<svg width="166" height="16" viewBox="0 0 166 16" fill="none" xmlns="http://www.w3.org/2000/svg">
<path d="M97.7521 14.1586C98.5784 14.1685 99.3988 14.019 100.169 13.7184C100.884 13.4402 101.533 13.0159 102.075 12.4726C102.619 11.9215 103.044 11.2649 103.325 10.5432C103.918 8.92878 103.918 7.15601 103.325 5.5416C103.044 4.81845 102.619 4.16028 102.075 3.60746C101.533 3.06419 100.884 2.63992 100.169 2.36174C98.6094 1.77479 96.89 1.77479 95.3309 2.36174C94.6158 2.63992 93.9667 3.06419 93.4249 3.60746C92.8807 4.15937 92.4566 4.81788 92.1791 5.5416C91.5796 7.1549 91.5796 8.92988 92.1791 10.5432C92.4571 11.2652 92.8812 11.9221 93.4249 12.4726C93.9667 13.0159 94.6158 13.4402 95.3309 13.7184C96.1022 14.019 96.9243 14.1685 97.7521 14.1586ZM97.7521 15.985C96.6578 15.9964 95.5716 15.796 94.5535 15.3949C93.607 15.0213 92.7466 14.4588 92.0246 13.7418C91.3092 13.022 90.744 12.1672 90.3621 11.2269C89.5564 9.17872 89.5564 6.90138 90.3621 4.85318C90.744 3.91432 91.3092 3.06098 92.0246 2.34301C92.745 1.62399 93.6058 1.06123 94.5535 0.689858C95.5713 0.287276 96.6575 0.0853211 97.7521 0.0951043C98.8421 0.0847653 99.9237 0.286772 100.937 0.689858C101.884 1.06351 102.745 1.625 103.47 2.3405C104.194 3.05601 104.766 3.91073 105.151 4.85318C105.951 6.9026 105.951 9.1775 105.151 11.2269C104.767 12.1705 104.196 13.0264 103.471 13.7428C102.747 14.4592 101.884 15.0212 100.937 15.3949C99.9234 15.7964 98.8418 15.9968 97.7521 15.985Z" fill="#98C5EA"/>
<path d="M108.109 0.525391H118.511V2.35181H110.081V7.50326H116.759V9.3297H110.081V15.5536H108.109V0.525391Z" fill="#98C5EA"/>
<path d="M120.195 0.525391H130.597V2.35181H122.167V7.50326H128.845V9.3297H122.167V15.5536H120.195V0.525391Z" fill="#98C5EA"/>
<path d="M134.245 0.525391H132.273V15.5536H134.245V0.525391Z" fill="#98C5EA"/>
<path d="M144.627 15.9998C143.533 16.0107 142.447 15.8103 141.429 15.4097C140.482 15.0361 139.622 14.4736 138.9 13.7565C138.184 13.0368 137.619 12.1819 137.237 11.2417C136.431 9.19349 136.431 6.91615 137.237 4.86795C137.619 3.9291 138.184 3.07575 138.9 2.35778C139.62 1.63877 140.481 1.07601 141.429 0.704635C143.121 0.0601014 144.967 -0.0638496 146.73 0.348711C147.317 0.491815 147.885 0.700768 148.425 0.971577C148.901 1.2104 149.346 1.50604 149.75 1.85201C150.107 2.15776 150.437 2.49472 150.734 2.85888C151.395 3.66073 151.887 4.58779 152.181 5.58447H150.247C149.97 4.91376 149.577 4.29709 149.085 3.76272C148.855 3.52233 148.606 3.30002 148.341 3.09773C148.042 2.87056 147.721 2.67588 147.381 2.51701C146.988 2.33411 146.577 2.19437 146.154 2.10022C145.665 1.9879 145.166 1.93289 144.665 1.9363C143.837 1.92891 143.015 2.07828 142.243 2.37652C141.529 2.65591 140.88 3.08003 140.337 3.62224C139.796 4.17654 139.372 4.8344 139.092 5.55637C138.492 7.16967 138.492 8.94466 139.092 10.558C139.373 11.2785 139.796 11.9348 140.337 12.4874C140.88 13.0296 141.529 13.4537 142.243 13.7331C143.015 14.0334 143.837 14.1828 144.665 14.1733C145.18 14.1784 145.694 14.1202 146.196 14.0001C146.633 13.8936 147.055 13.7364 147.456 13.5318C147.807 13.3596 148.137 13.1475 148.439 12.8995C148.708 12.677 148.962 12.4361 149.198 12.1783C149.703 11.5894 150.097 10.9134 150.359 10.1833H152.326C151.997 11.2348 151.478 12.2173 150.795 13.0822C150.488 13.469 150.148 13.8279 149.779 14.1546C149.37 14.5172 148.92 14.8315 148.439 15.0912C147.902 15.3772 147.333 15.5973 146.744 15.7469C146.064 15.9179 145.365 16.0013 144.665 15.9951" fill="#98C5EA"/>
<path d="M154.469 0.525391H165.198V2.35181H156.44V7.07711H163.554V8.89885H156.44V13.7318H165.198V15.5536H154.469V0.525391Z" fill="#98C5EA"/>
<path d="M7.94262 15.9431C7.14631 15.9516 6.35153 15.8715 5.57295 15.7042C4.9273 15.5714 4.29884 15.3656 3.69969 15.0907C3.19423 14.8651 2.72162 14.5721 2.29475 14.2197C1.93338 13.9129 1.60672 13.5674 1.32065 13.1894C0.676778 12.3839 0.225107 11.4421 0 10.4357H5.59167C5.67774 10.7336 5.8209 11.012 6.01316 11.2552C6.21099 11.4822 6.4512 11.6683 6.72032 11.8032C7.09985 11.9841 7.51788 12.0693 7.93793 12.0514C8.39013 12.0909 8.84406 11.9982 9.24451 11.7844C9.3497 11.7226 9.43833 11.6362 9.50277 11.5326C9.56721 11.429 9.60555 11.3114 9.6145 11.1897C9.61076 11.0638 9.57253 10.9413 9.50399 10.8356C9.43546 10.7299 9.33922 10.645 9.22579 10.5903C8.89896 10.403 8.54958 10.2582 8.18612 10.1594C7.75059 10.0283 7.2495 9.90183 6.70626 9.7707C6.16302 9.63957 5.59635 9.4944 5.02969 9.33049C4.45864 9.16471 3.89868 8.96293 3.35314 8.72636C2.82084 8.50292 2.32388 8.20318 1.87794 7.83656C1.44919 7.47883 1.09578 7.03947 0.838272 6.54401C0.562509 5.98226 0.427518 5.36187 0.444904 4.73633C0.453071 4.12858 0.614126 3.53267 0.913218 3.00356C1.25185 2.40332 1.71877 1.88522 2.28069 1.48623C2.95973 1.00572 3.71494 0.643153 4.51455 0.413783C5.51989 0.121899 6.56342 -0.0170308 7.6101 0.00166391C8.34314 -0.00437066 9.07475 0.0678424 9.79246 0.217084C10.3858 0.34493 10.9636 0.536489 11.5159 0.788428C11.9811 1.00581 12.4169 1.28118 12.8131 1.60798C13.1544 1.88963 13.468 2.20327 13.7497 2.54461C14.3412 3.29106 14.7674 4.15465 15.0001 5.07819H9.39438C9.35106 4.85802 9.25097 4.65301 9.10402 4.48343C8.96599 4.30803 8.79193 4.1643 8.59358 4.06195C8.32132 3.92942 8.02035 3.86665 7.7178 3.8793C7.32734 3.84537 6.9354 3.92506 6.58918 4.10877C6.49535 4.16173 6.41648 4.23763 6.35997 4.32937C6.30346 4.4211 6.27114 4.52567 6.26604 4.6333C6.26604 4.89087 6.49084 5.1016 6.94979 5.22336C7.40874 5.34512 7.97071 5.49968 8.64509 5.64486C9.31946 5.79003 10.05 5.95862 10.8508 6.15999C11.6181 6.35264 12.3578 6.6422 13.0519 7.02169C13.714 7.38115 14.2932 7.87577 14.7519 8.47346C15.2291 9.13904 15.4699 9.94524 15.4356 10.7635C15.4384 11.4411 15.2778 12.1094 14.9673 12.7117C14.6275 13.3589 14.1475 13.9221 13.5624 14.3602C12.8542 14.8732 12.0618 15.2584 11.2208 15.4982C10.1677 15.8005 9.07562 15.9457 7.98006 15.929" fill="white"/>
<path d="M20.1034 5.09285H15.4062V0.456543H30.3876V5.09285H25.6951V15.5128H20.1034V5.09285Z" fill="white"/>
<path d="M49.5703 0.456543H55.8317L60.0137 7.5515V0.456543H65.5585V15.5128H59.2972L55.1198 8.41319V15.5128H49.5703V0.456543Z" fill="white"/>
<path d="M67.4609 0.456543H80.6018V4.75566H73.0526V6.15593H80.6018V9.81346H73.0526V11.209H80.6018V15.5128H67.4609V0.456543Z" fill="white"/>
<path d="M39.423 11.1848C38.7968 11.1609 38.1915 10.9533 37.6825 10.588C37.1734 10.2226 36.783 9.71557 36.56 9.13C36.337 8.54442 36.2911 7.90619 36.4281 7.29474C36.5652 6.6833 36.879 6.12567 37.3306 5.69129C37.7823 5.2569 38.3516 4.96495 38.9679 4.85179C39.5842 4.73863 40.2202 4.80925 40.7967 5.05487C41.3732 5.30049 41.8647 5.71026 42.21 6.23315C42.5553 6.75603 42.7391 7.36893 42.7386 7.99554C42.7214 8.85799 42.3625 9.67833 41.7408 10.2763C41.1191 10.8743 40.2855 11.2011 39.423 11.1848ZM47.7402 4.87188C47.3292 3.9134 46.7195 3.05305 45.9513 2.34768C45.136 1.6012 44.181 1.02344 43.1414 0.647696C40.7379 -0.189206 38.1221 -0.189206 35.7186 0.647696C34.6787 1.02288 33.7237 1.6007 32.9087 2.34768C32.1406 3.05305 31.5308 3.9134 31.1198 4.87188C30.7055 5.85627 30.4922 6.9135 30.4922 7.98149C30.4922 9.04948 30.7055 10.1067 31.1198 11.0911C31.5295 12.0517 32.1394 12.9138 32.9087 13.62C33.726 14.3638 34.6804 14.9412 35.7186 15.32C38.1232 16.1503 40.7368 16.1503 43.1414 15.32C44.1793 14.9406 45.1336 14.3633 45.9513 13.62C46.7206 12.9138 47.3305 12.0517 47.7402 11.0911C48.1544 10.1067 48.3678 9.04948 48.3678 7.98149C48.3678 6.9135 48.1544 5.85627 47.7402 4.87188Z" fill="white"/>
</svg>

<svg xmlns="http://www.w3.org/2000/svg" width="166" height="16" fill="none" viewBox="0 0 166 16"><path fill="#98c5ea" d="M97.752 14.159c.826.01 1.647-.14 2.417-.44a5.5 5.5 0 0 0 1.906-1.246 5.7 5.7 0 0 0 1.25-1.93 7.25 7.25 0 0 0 0-5.001 5.7 5.7 0 0 0-1.25-1.935 5.5 5.5 0 0 0-1.906-1.245 6.87 6.87 0 0 0-4.838 0 5.5 5.5 0 0 0-1.906 1.245 5.6 5.6 0 0 0-1.246 1.935 7.18 7.18 0 0 0 0 5.001 5.6 5.6 0 0 0 1.246 1.93c.542.543 1.19.967 1.906 1.245.771.301 1.593.45 2.421.44m0 1.826a8.5 8.5 0 0 1-3.198-.59 7.5 7.5 0 0 1-2.53-1.653 7.7 7.7 0 0 1-1.662-2.515 8.7 8.7 0 0 1 0-6.374 7.6 7.6 0 0 1 1.663-2.51A7.4 7.4 0 0 1 94.553.69a8.5 8.5 0 0 1 3.2-.595 8.4 8.4 0 0 1 3.184.595 7.55 7.55 0 0 1 4.214 4.163c.8 2.05.8 4.325 0 6.374a7.52 7.52 0 0 1-4.214 4.168 8.4 8.4 0 0 1-3.185.59M108.109.525h10.402v1.827h-8.43v5.151h6.678V9.33h-6.678v6.224h-1.972zM120.195.525h10.402v1.827h-8.43v5.151h6.678V9.33h-6.678v6.224h-1.972zM134.245.525h-1.972v15.029h1.972zM144.627 16a8.5 8.5 0 0 1-3.198-.59 7.5 7.5 0 0 1-2.529-1.653 7.65 7.65 0 0 1-1.663-2.515 8.7 8.7 0 0 1 0-6.374 7.6 7.6 0 0 1 1.663-2.51 7.4 7.4 0 0 1 2.529-1.653 9.1 9.1 0 0 1 5.301-.356 8 8 0 0 1 1.695.623 6.6 6.6 0 0 1 1.325.88q.537.46.984 1.007a7.7 7.7 0 0 1 1.447 2.725h-1.934a6.2 6.2 0 0 0-1.162-1.821 6.4 6.4 0 0 0-.744-.665 5.3 5.3 0 0 0-.96-.581 6.45 6.45 0 0 0-2.716-.58 6.6 6.6 0 0 0-2.422.44 5.6 5.6 0 0 0-1.906 1.245 5.7 5.7 0 0 0-1.245 1.934 7.17 7.17 0 0 0 0 5.002c.281.72.704 1.377 1.245 1.93a5.6 5.6 0 0 0 1.906 1.245c.772.3 1.594.45 2.422.44a6.3 6.3 0 0 0 1.531-.173 5.8 5.8 0 0 0 1.26-.468q.528-.259.983-.633.404-.334.759-.72a6.4 6.4 0 0 0 1.161-1.996h1.967a9 9 0 0 1-1.531 2.9 8.4 8.4 0 0 1-1.016 1.072 7 7 0 0 1-1.34.936 7.6 7.6 0 0 1-1.695.656 8.2 8.2 0 0 1-2.079.248M154.469.525h10.729v1.827h-8.758v4.725h7.114V8.9h-7.114v4.833h8.758v1.822h-10.729z"/><path fill="#fff" d="M7.943 15.943a10.7 10.7 0 0 1-2.37-.239 8.7 8.7 0 0 1-1.873-.613 6.1 6.1 0 0 1-1.405-.871 6.5 6.5 0 0 1-.974-1.03A6.8 6.8 0 0 1 0 10.435h5.592c.086.298.229.576.421.82.198.226.438.412.707.547.38.181.798.266 1.218.248.452.04.906-.053 1.307-.267a.75.75 0 0 0 .37-.594.69.69 0 0 0-.39-.6 4.4 4.4 0 0 0-1.039-.43 29 29 0 0 0-1.48-.39 39 39 0 0 1-1.676-.44 14 14 0 0 1-1.677-.604 6 6 0 0 1-1.475-.89 4.2 4.2 0 0 1-1.04-1.292 3.86 3.86 0 0 1-.393-1.808 3.6 3.6 0 0 1 .468-1.732c.339-.6.806-1.119 1.368-1.518A7.4 7.4 0 0 1 4.515.414 10.4 10.4 0 0 1 7.61.002c.733-.006 1.465.066 2.182.215.594.128 1.172.32 1.724.571.465.218.9.493 1.297.82q.513.424.937.937A6.7 6.7 0 0 1 15 5.078H9.394a1.3 1.3 0 0 0-.29-.595 1.6 1.6 0 0 0-.51-.421 1.8 1.8 0 0 0-.876-.183 2.03 2.03 0 0 0-1.129.23.64.64 0 0 0-.323.524c0 .258.225.469.684.59.459.122 1.02.277 1.695.422.674.145 1.405.314 2.206.515a9.3 9.3 0 0 1 2.2.862c.663.36 1.242.854 1.7 1.451.478.666.719 1.472.685 2.29a4.2 4.2 0 0 1-.469 1.949c-.34.647-.82 1.21-1.405 1.648-.708.513-1.5.898-2.341 1.138a11.1 11.1 0 0 1-3.24.431M20.103 5.093h-4.697V.457h14.982v4.636h-4.693v10.42h-5.592zM49.57.457h6.262l4.182 7.095V.457h5.544v15.056h-6.26l-4.178-7.1v7.1h-5.55zM67.46.457h13.142v4.299h-7.55v1.4h7.55v3.657h-7.55v1.396h7.55v4.304H67.46zM39.423 11.185a3.194 3.194 0 1 1 3.316-3.19 3.255 3.255 0 0 1-3.316 3.19m8.317-6.313a7.4 7.4 0 0 0-1.789-2.524 8.4 8.4 0 0 0-2.81-1.7 11.3 11.3 0 0 0-7.422 0 8.4 8.4 0 0 0-2.81 1.7 7.4 7.4 0 0 0-1.79 2.524 8.02 8.02 0 0 0 0 6.22c.41.96 1.02 1.822 1.79 2.528a8.5 8.5 0 0 0 2.81 1.7c2.404.83 5.018.83 7.422 0a8.5 8.5 0 0 0 2.81-1.7 7.34 7.34 0 0 0 1.79-2.529 8.02 8.02 0 0 0 0-6.22"/></svg>
